src/assets/duotone/Calendar2.svg

<?xml version="1.0" encoding="UTF-8"?>
<svg width="24" height="24" viewBox="0 0 24 24" xmlns="http://www.w3.org/2000/svg">
 <path d="m16.75 3.56v-1.56c0-0.41-0.34-0.75-0.75-0.75s-0.75 0.34-0.75 0.75v1.5h-6.5v-1.5c0-0.41-0.34-0.75-0.75-0.75s-0.75 0.34-0.75 0.75v1.56c-2.7 0.25-4.01 1.86-4.21 4.25-0.02 0.29 0.22 0.53 0.5 0.53h16.92c0.29 0 0.53-0.25 0.5-0.53-0.2-2.39-1.51-4-4.21-4.25z"/>
 <path d="m20 9.8398c0.55 0 1 0.44996 1 0.99996v6.16c0 3-1.5 5-5 5h-8c-3.5 0-5-2-5-5v-6.16c0-0.55 0.45-0.99996 1-0.99996h16z" opacity=".4"/>
 <path d="m8.5 15c-0.13 0-0.26-0.03-0.38-0.08s-0.22999-0.12-0.32999-0.21c-0.09-0.1-0.16002-0.21-0.21002-0.33s-0.07999-0.25-0.07999-0.38 0.02999-0.26 0.07999-0.38 0.12002-0.23 0.21002-0.33c0.1-0.09 0.20999-0.16 0.32999-0.21 0.24-0.1 0.52-0.1 0.76 0 0.12 0.05 0.22999 0.12 0.32999 0.21 0.09 0.1 0.16002 0.21 0.21002 0.33s0.07999 0.25 0.07999 0.38-0.02999 0.26-0.07999 0.38-0.12002 0.23-0.21002 0.33c-0.1 0.09-0.20999 0.16-0.32999 0.21s-0.25 0.08-0.38 0.08z"/>
 <path d="m12 15c-0.13 0-0.26-0.03-0.38-0.08s-0.23-0.12-0.33-0.21c-0.18-0.19-0.29-0.45-0.29-0.71s0.11-0.52 0.29-0.71c0.1-0.09 0.21-0.16 0.33-0.21 0.24-0.11 0.52-0.11 0.76 0 0.12 0.05 0.23 0.12 0.33 0.21 0.18 0.19 0.29 0.45 0.29 0.71s-0.11 0.52-0.29 0.71c-0.1 0.09-0.21 0.16-0.33 0.21s-0.25 0.08-0.38 0.08z"/>
 <path d="m8.5 18.5c-0.13 0-0.26-0.03-0.38-0.08s-0.22999-0.12-0.32999-0.21c-0.18-0.19-0.29001-0.45-0.29001-0.71s0.11001-0.52 0.29001-0.71c0.1-0.09 0.20999-0.16 0.32999-0.21 0.24-0.1 0.52-0.1 0.76 0 0.12 0.05 0.22999 0.12 0.32999 0.21 0.18 0.19 0.29001 0.45 0.29001 0.71s-0.11001 0.52-0.29001 0.71c-0.1 0.09-0.20999 0.16-0.32999 0.21s-0.25 0.08-0.38 0.08z"/>
</svg>

<svg width="24" height="24" viewBox="0 0 24 24"  xmlns="http://www.w3.org/2000/svg">
<path d="M16.7502 3.56V2C16.7502 1.59 16.4102 1.25 16.0002 1.25C15.5902 1.25 15.2502 1.59 15.2502 2V3.5H8.75022V2C8.75022 1.59 8.41022 1.25 8.00022 1.25C7.59022 1.25 7.25022 1.59 7.25022 2V3.56C4.55022 3.81 3.24023 5.42 3.04023 7.81C3.02023 8.1 3.26023 8.34 3.54023 8.34H20.4602C20.7502 8.34 20.9902 8.09 20.9602 7.81C20.7602 5.42 19.4502 3.81 16.7502 3.56Z" />
<path opacity="0.4" d="M20 9.83984C20.55 9.83984 21 10.2898 21 10.8398V16.9998C21 19.9998 19.5 21.9998 16 21.9998H8C4.5 21.9998 3 19.9998 3 16.9998V10.8398C3 10.2898 3.45 9.83984 4 9.83984H20Z" />
<path d="M8.5 14.9999C8.37 14.9999 8.24 14.9699 8.12 14.9199C8 14.8699 7.89001 14.7999 7.79001 14.7099C7.70001 14.6099 7.62999 14.4999 7.57999 14.3799C7.52999 14.2599 7.5 14.1299 7.5 13.9999C7.5 13.8699 7.52999 13.7399 7.57999 13.6199C7.62999 13.4999 7.70001 13.3899 7.79001 13.2899C7.89001 13.1999 8 13.1299 8.12 13.0799C8.36 12.9799 8.64 12.9799 8.88 13.0799C9 13.1299 9.10999 13.1999 9.20999 13.2899C9.29999 13.3899 9.37001 13.4999 9.42001 13.6199C9.47001 13.7399 9.5 13.8699 9.5 13.9999C9.5 14.1299 9.47001 14.2599 9.42001 14.3799C9.37001 14.4999 9.29999 14.6099 9.20999 14.7099C9.10999 14.7999 9 14.8699 8.88 14.9199C8.76 14.9699 8.63 14.9999 8.5 14.9999Z" />
<path d="M12 14.9996C11.87 14.9996 11.74 14.9696 11.62 14.9196C11.5 14.8696 11.39 14.7996 11.29 14.7096C11.11 14.5196 11 14.2596 11 13.9996C11 13.7396 11.11 13.4796 11.29 13.2896C11.39 13.1996 11.5 13.1296 11.62 13.0796C11.86 12.9696 12.14 12.9696 12.38 13.0796C12.5 13.1296 12.61 13.1996 12.71 13.2896C12.89 13.4796 13 13.7396 13 13.9996C13 14.2596 12.89 14.5196 12.71 14.7096C12.61 14.7996 12.5 14.8696 12.38 14.9196C12.26 14.9696 12.13 14.9996 12 14.9996Z" />
<path d="M8.5 18.4999C8.37 18.4999 8.24 18.4699 8.12 18.4199C8 18.3699 7.89001 18.2999 7.79001 18.2099C7.61001 18.0199 7.5 17.7599 7.5 17.4999C7.5 17.2399 7.61001 16.9799 7.79001 16.7899C7.89001 16.6999 8 16.6299 8.12 16.5799C8.36 16.4799 8.64 16.4799 8.88 16.5799C9 16.6299 9.10999 16.6999 9.20999 16.7899C9.38999 16.9799 9.5 17.2399 9.5 17.4999C9.5 17.7599 9.38999 18.0199 9.20999 18.2099C9.10999 18.2999 9 18.3699 8.88 18.4199C8.76 18.4699 8.63 18.4999 8.5 18.4999Z" />
</svg>
